X:1
T:Wiegenlied
T:aus "Des Knaben Wunderhorn"
T:Johannes Brahms
%%score 1 { 2 | 3 }
L:1/8
Q:1/4=80
M:3/4
K:Eb
V:1 treble nm="Voice"
V:2 treble nm="Piano"
V:3 bass 
V:1
"^Zart bewegt" z | z6 | z2 z2!p! G G | B3 G G2 | B2 z2 GB | e2 d3 c | (c2 !breath!B2) (FG) | %7
w: ||Gu- ten|A- bend, gut'|Nacht, mit _|Ro- sen be-|dacht, _ mit _|
 A2 F2 (FG) | A2 z2 (FA) | (dc) B2 d2 | e2 z2 E E | e4 c A | !breath!B4 G E | A2 B2 c2 | %14
w: Näg- lein be- *|steckt, schlupf _|un- * ter die|Deck'! Mor- gen|früh, wenn Gott|will, wirst du|wie- der ge|
{/G} !breath!B4 E E | e4 c A | !breath!B4 G E | (A2{BA} G2) F2 | E4 z |] %19
w: weckt, mor- gen|früh, wenn Gott|will, wirst du|wir- der ge-|weckt.|
V:2
!p! ([GB]- | [GB][EG]) [GB]2 z ([GB]- | [GB][EG]) [GB]2 z ([GB]- | [GB] [EG]2 B,2) ([GB]- | %4
 [GB] [EG]2 B,2) ([GB]- | [GB] [eg]2 [eg]2 [eg]- | [eg] [da]2 [Ad]2) ([GB]- | %7
 [GB] [FA]2 [B,F]2) ([Ac]- | [Ac] [FA]2 [B,F]2) ([Ac]- | [Ac] [FA]2 [Ad]2 [Af]- | %10
 [Af] [Ge]2 [GB]2) ([E_de]- | [Ede][Ac]) [ce]3 [Ac] | ([GB][EG]) [GB]3 [GB] | %13
 ([DF][B,D][DF][A,C][DF][G,B,]) | [EG]4 z ([E_de]- | [Ede][Ac]) [ce]3 [Ac] | %16
 ([GB][EG]) [GB]3 [GB] | ([DF]B[EG]c[FA]d) | [GBe]4 z |] %19
V:3
 z | E,,2 (G,2 B,,2) | E,,2 (G,2 B,,2) | E,,2 (G,2 B,,2) | E,,2 (G,2 B,,2) | E,,2 (B,2 B,,2) | %6
 E,,2 (F,2 B,,2) | E,,2 (F,2 B,,2) | E,,2 (F,2 B,,2) | E,,2 (B,2 B,,2) | E,,2 (B,2 E,2) | %11
 E,,2 (A,2 A,,2) | E,,2 (G,2 B,,2) | E,,2 (F,2 B,,2) | E,,2 (G,2 B,,2) | E,,2 (A,2 A,,2) | %16
 E,,2 (G,2 B,,2) | E,,2 (B,2 B,,2) | E,,2 [B,,E,G,]2 z |] %19

